svg/deno.svg

<svg viewBox="0 0 20 20" xmlns="http://www.w3.org/2000/svg">
<rect width="100%" height="100%" fill="white"/>
<path d="M10 1.75C14.5564 1.75 18.25 5.44365 18.25 10C18.25 14.5564 14.5564 18.25 10 18.25C5.44365 18.25 1.75 14.5564 1.75 10C1.75 5.44365 5.44365 1.75 10 1.75Z" fill="black"/>
<path d="M5.39093 4.79664C5.45286 4.58775 5.67053 4.46529 5.88206 4.52239C6.09362 4.57947 6.22011 4.79481 6.16855 5.00647L6.16604 5.01626L5.61819 7.04654L5.61548 7.05624C5.55354 7.2651 5.33588 7.38759 5.12435 7.3305C4.91278 7.27341 4.78629 7.05807 4.83785 6.84641L4.84037 6.83662L5.38822 4.80634L5.39093 4.79664Z" fill="white"/>
<path d="M12.4302 5.18043C12.4922 4.97153 12.7098 4.84908 12.9214 4.90618C13.133 4.96325 13.2594 5.17859 13.2078 5.39025L13.2053 5.40005L12.7749 6.99507L12.7395 6.96865C12.5254 6.81073 12.2978 6.67207 12.0594 6.55428L12.4275 5.19012L12.4302 5.18043Z" fill="white"/>
<path d="M8.57236 2.72528C8.82558 2.67589 9.08127 2.63978 9.33823 2.61707C9.35149 2.67697 9.35077 2.7391 9.3362 2.79869L9.33367 2.80849L8.78581 4.83876L8.78312 4.84846C8.72119 5.05735 8.50355 5.17981 8.29197 5.12271C8.08044 5.06564 7.95394 4.8503 8.00547 4.63863L8.008 4.62884L8.51862 2.73598L8.57236 2.72528Z" fill="white"/>
<path d="M14.2718 4.41846L14.3794 4.0195L14.427 4.05466C14.6481 4.21958 14.8599 4.39666 15.0614 4.58508L15.0496 4.62836L15.0469 4.63806C14.985 4.84695 14.7673 4.96941 14.5558 4.9123C14.3442 4.85523 14.2177 4.63989 14.2693 4.42823L14.2718 4.41846Z" fill="white"/>
<path d="M10.9976 3.4033L11.192 2.68326L11.2493 2.69276C11.4954 2.73454 11.7393 2.7888 11.98 2.85535L11.7755 3.61322L11.7728 3.62292C11.7108 3.83181 11.4932 3.95427 11.2817 3.89717C11.0701 3.84009 10.9436 3.62475 10.9952 3.41309L10.9976 3.4033Z" fill="white"/>
<path d="M9.32378 14.311C9.3857 14.1021 9.60334 13.9797 9.81493 14.0367C9.86882 14.0512 9.91915 14.0768 9.9626 14.1118C10.0061 14.1468 10.0418 14.1905 10.0675 14.24L10.0795 14.2992L10.0984 14.3939L10.1114 14.4596L10.1098 14.4749C10.1079 14.4902 10.1051 14.5056 10.1014 14.5208L10.0988 14.5306L9.55103 16.5609L9.54828 16.5706C9.48635 16.7795 9.26872 16.902 9.05719 16.8448C8.8456 16.7878 8.71911 16.5724 8.7707 16.3608L8.77317 16.351L9.32102 14.3207L9.32378 14.311Z" fill="white"/>
<path d="M5.97212 12.0087C5.97886 11.9868 5.98733 11.9658 5.99732 11.9459C6.20135 12.1246 6.43486 12.2835 6.69503 12.4213L6.19828 14.2622L6.19558 14.2719C6.13364 14.4808 5.91598 14.6032 5.70444 14.5462C5.49288 14.4891 5.36639 14.2737 5.41795 14.0621L5.42047 14.0523L5.96832 12.022L5.97212 12.0087Z" fill="white"/>
<path d="M4.19975 9.88535C4.26166 9.67646 4.47932 9.55403 4.69089 9.61112C4.90246 9.66821 5.02891 9.88353 4.97735 10.0952L4.97484 10.105L4.42699 12.1352L4.42428 12.145C4.36234 12.3539 4.14468 12.4763 3.93315 12.4192C3.72158 12.3621 3.59509 12.1468 3.64665 11.9351L3.64917 11.9254L4.19702 9.89508L4.19975 9.88535Z" fill="white"/>
<path d="M16.4839 9.42428C16.5458 9.21539 16.7635 9.09296 16.9751 9.15005C17.1866 9.20714 17.3131 9.42247 17.2615 9.63411L17.259 9.6439L16.7112 11.6742L16.7085 11.6839C16.6465 11.8928 16.4289 12.0152 16.2173 11.9581C16.0058 11.901 15.8793 11.6857 15.9308 11.4741L15.9333 11.4643L16.4812 9.43402L16.4839 9.42428Z" fill="white"/>
<path d="M2.63757 9.13812C2.74684 8.19118 3.03899 7.27444 3.4978 6.43892C3.52993 6.43984 3.56186 6.44453 3.5929 6.45291C3.80446 6.50998 3.93095 6.72532 3.87939 6.93699L3.87688 6.94678L3.32903 8.97708L3.32629 8.98676C3.26438 9.19565 3.04672 9.31813 2.83516 9.26099C2.7586 9.24047 2.68984 9.19768 2.63757 9.13812Z" fill="white"/>
<path d="M15.0963 6.72716C15.1582 6.51827 15.3759 6.3958 15.5875 6.45291C15.799 6.50998 15.9255 6.72532 15.8739 6.93699L15.8714 6.94678L15.3236 8.97708L15.3209 8.98676C15.2589 9.19565 15.0412 9.31813 14.8297 9.26099C14.6181 9.20395 14.4917 8.98857 14.5432 8.77693L14.5457 8.76714L15.0936 6.73686L15.0963 6.72716Z" fill="white"/>
<path d="M7.07997 15.2939C7.14188 15.085 7.35956 14.9626 7.57109 15.0197C7.78268 15.0767 7.90912 15.2921 7.85758 15.5038L7.85505 15.5136L7.46296 16.9665L7.40818 16.9464C7.1721 16.8582 6.94071 16.758 6.7149 16.6462L7.07723 15.3036L7.07997 15.2939Z" fill="white"/>
<path fill-rule="evenodd" clip-rule="evenodd" d="M9.67774 6.41998C7.2787 6.41998 5.41254 7.93027 5.41254 9.80847C5.41254 11.5823 7.12966 12.7149 9.79159 12.6582C10.018 12.6534 10.0834 12.8055 10.1571 13.0104C10.219 13.1825 10.3686 13.972 10.5084 14.7099L10.5085 14.7105C10.5351 14.8509 10.5613 14.9894 10.5866 15.1215L10.6069 15.2281C10.7415 15.9322 10.8766 16.6387 10.9809 17.3478C12.7191 17.118 14.3265 16.2594 15.5042 14.9644L14.248 10.2799C13.9349 9.14852 13.5689 8.10605 12.6006 7.3487C11.8215 6.73945 10.8317 6.41998 9.67774 6.41998ZM10.1934 7.77638C10.4782 7.77638 10.709 8.00722 10.709 8.29201C10.709 8.5768 10.4782 8.80763 10.1934 8.80763C9.9086 8.80763 9.67776 8.5768 9.67776 8.29201C9.67776 8.00722 9.9086 7.77638 10.1934 7.77638Z" fill="white"/>
</svg>

<svg xmlns="http://www.w3.org/2000/svg" viewBox="0 0 20 20">
  <rect width="100%" height="100%" fill="#fff"/>
  <path d="M10 1.75a8.25 8.25 0 1 1 0 16.5 8.25 8.25 0 0 1 0-16.5Z"/>
  <path fill="#fff" d="M5.4 4.8a.4.4 0 0 1 .77.2v.02l-.55 2.03a.4.4 0 0 1-.78-.2v-.01l.55-2.03V4.8ZM12.43 5.18a.4.4 0 0 1 .78.21v.01L12.77 7l-.03-.03c-.21-.16-.44-.3-.68-.42l.37-1.36v-.01ZM8.57 2.73c.26-.05.51-.09.77-.11a.4.4 0 0 1 0 .18l-.55 2.04a.4.4 0 0 1-.78-.2v-.01l.5-1.9h.06ZM14.27 4.42l.1-.4.06.03c.22.17.43.35.63.54l-.01.04a.4.4 0 0 1-.78-.2v-.01ZM11 3.4l.2-.72.05.01c.25.04.49.1.73.17l-.2.75v.01a.4.4 0 0 1-.78-.2V3.4ZM9.32 14.31a.4.4 0 0 1 .75-.07v.06l.03.1.01.06v.01a.4.4 0 0 1 0 .05l-.01.01-.55 2.03v.01a.4.4 0 0 1-.78-.2v-.02l.55-2.03ZM5.97 12a.4.4 0 0 1 .03-.05c.2.17.43.33.7.47l-.5 1.84v.01a.4.4 0 0 1-.78-.2v-.02l.55-2.03v-.01ZM4.2 9.89a.4.4 0 0 1 .78.2v.02l-.55 2.03a.4.4 0 0 1-.78-.2v-.01L4.2 9.9v-.01ZM16.48 9.42a.4.4 0 0 1 .78.21v.01l-.55 2.03v.01a.4.4 0 0 1-.78-.2v-.02l.55-2.03ZM2.64 9.14c.1-.95.4-1.87.86-2.7l.1.01a.4.4 0 0 1 .28.49l-.55 2.04a.4.4 0 0 1-.7.16ZM15.1 6.73a.4.4 0 0 1 .77.2v.02l-.55 2.03a.4.4 0 0 1-.78-.2v-.01l.55-2.03v-.01ZM7.08 15.3a.4.4 0 0 1 .78.2v.01l-.4 1.46-.05-.02a7.4 7.4 0 0 1-.7-.3l.37-1.35Z"/>
  <path fill="#fff" fill-rule="evenodd" d="M9.68 6.42c-2.4 0-4.27 1.51-4.27 3.39 0 1.77 1.72 2.9 4.38 2.85.23 0 .3.15.37.35.06.17.2.96.35 1.7l.08.41.02.1c.13.71.27 1.42.37 2.13a7.46 7.46 0 0 0 4.52-2.39l-1.25-4.68c-.32-1.13-.68-2.17-1.65-2.93a4.64 4.64 0 0 0-2.92-.93Zm.51 1.36a.52.52 0 1 1 0 1.03.52.52 0 0 1 0-1.03Z" clip-rule="evenodd"/>
</svg>
